X: 0
T: Hyfrydol
Z: Rowland Hugh Prichard, 1855
Z: Copyright © 2005 by Douglas D. Anderson
Z: Released to the Public Domain
L: 1/4
M: 3/4
V: P1 name="Soprano"
%%MIDI program 1 19
V: P2 name="Alto"
%%MIDI program 2 19
V: P3 name="Tenor"
%%MIDI program 3 19
V: P4 name="Bass"
%%MIDI program 4 19
K: F
[V: P1]  F2 G | (F G) A | B2 A | (G F) G | c2 B | A2 A | (G F) G | F3 | F2 G | (F G) A | B2 A | (G F) G | c2 B | A2 A | (G F) G | F3 | c2 c | (c B) A | B2 B | (B A) G | A2 A | (A B) c | (c B) A | G3 | (c A) c | (B G) B | (A F) A | (G A) G | c2 c | (d c) B | A2 G | F3|]
w: Ho- ly fire_ of Je- sus' Spi-_ rit pur- i fy my soul_ and heart. Fire of love,_ con- sume my dark-_ ness. Fire of hope, cleanse ev-_ ery part. Light of heav-_ en, burn- ing bright-_ ly, heal my wounds_ and make_ me whole. Through_ your mer-_ cy and_ com- pas_ sion light your fire_ with- in my soul.
[V: P2]  C2 E | F2 F | G2 F | (E D) E | F2 E | F2 F | D2 E | C3 | C2 E | F2 F | G2 F | (E D) E | F2 E | F2 F | D2 E | C3 | F2 F | F2 F | D2 F | E2 C | C2 F | F2 F | F2 F | E3 | F2 F | D2 G | (F C) F | (E F) G | F2 F | F2 F | F2 E | C3|]
[V: P3]  A,2 C | (A, B,) C | (D C) C | (C A,) C | C2 C | C2 C | (B, A,) C | A,3 | A,2 C | (A, B,) C | (D C) C | (C A,) C | C2 C | C2 C | (B, A,) C | A,3 | C2 A, | (F, G,) A, | G,2 D | C2 G, | F,2 C | D2 C | D2 C | C3 | C2 A, | (G, B,) C | (C A,) C | C2 C | A,2 C | (B, C) D | C2 B, | A,3|]
[V: P4]  F,,2 C, | F,2 F, | (F, E,) F, | (C, D,) C, | A,,2 G,, | F,,2 A,, | (B,, D,) C, | F,3 | F,,2 C, | F,2 F, | (F, E,) F, | (C, D,) C, | A,,2 G,, | F,,2 A,, | (B,, D,) C, | F,3 | A,2 F, | D,2 D, | G,2 G, | C,2 E, | F,2 F, | D,2 A,, | G,,2 A,, | C,3 | (A, F,) F, | G,2 E, | F,2 A,, | C,2 E, | F,2 A,, | (B,, A,,) G,, | C,2 C, | F,,3|]

